src/assets/logos/forbes.svg

<svg height="47" viewBox="0 0 183 47" width="183" xmlns="http://www.w3.org/2000/svg"><path d="m103.316 14.904c0-5.336.092-10.304.368-14.904l-14.076 2.668v1.288l1.38.184c1.012.092 1.656.46 2.024 1.012.368.644.644 1.564.828 2.944.184 2.668.368 8.74.276 18.308 0 9.476-.092 15.456-.276 17.756 5.06 1.104 9.016 1.564 11.96 1.564 5.52 0 9.844-1.564 12.972-4.784 3.128-3.128 4.784-7.544 4.784-12.972 0-4.324-1.196-7.912-3.588-10.764s-5.428-4.232-9.016-4.232c-2.392 0-4.876.644-7.636 1.932zm.276 28.336c-.184-2.944-.368-11.776-.368-26.22.828-.276 1.932-.46 3.312-.46 2.208 0 3.956 1.104 5.244 3.404s1.932 5.06 1.932 8.556c0 4.324-.736 7.82-2.208 10.764-1.472 2.852-3.312 4.324-5.612 4.324-.736-.184-1.472-.276-2.3-.368zm-66.792-42.32h-36.8v1.84l1.932.184c1.472.276 2.484.828 3.128 1.656.644.92 1.012 2.392 1.104 4.416.736 9.936.736 19.228 0 27.784-.184 2.024-.552 3.496-1.104 4.416-.644.92-1.656 1.472-3.128 1.656l-1.932.276v1.84h23.736v-1.84l-2.484-.184c-1.472-.184-2.484-.828-3.128-1.656-.644-.92-1.012-2.392-1.104-4.416-.276-3.68-.46-7.912-.46-12.604l4.968.092c2.668.092 4.508 2.116 5.428 6.164h1.84v-14.996h-1.84c-.92 3.956-2.668 5.98-5.428 6.072l-4.968.092c0-8.28.184-14.168.46-17.756h7.268c5.152 0 8.648 3.312 10.672 9.936l2.208-.644zm-4.324 28.336c0 4.784 1.38 8.74 4.048 11.868s6.624 4.6 11.592 4.6 9.016-1.564 11.96-4.784c2.944-3.128 4.324-7.084 4.324-11.868s-1.38-8.74-4.048-11.868-6.624-4.6-11.592-4.6-9.016 1.564-11.96 4.784c-2.944 3.128-4.324 7.084-4.324 11.868zm20.516-10.488c1.104 2.668 1.564 6.164 1.564 10.396 0 9.752-2.024 14.536-5.98 14.536-2.024 0-3.588-1.38-4.692-4.14s-1.564-6.256-1.564-10.396c0-9.66 2.024-14.444 5.98-14.444 2.024-.092 3.588 1.288 4.692 4.048zm77.74 22.356c3.036 3.036 6.9 4.6 11.5 4.6 2.852 0 5.336-.552 7.544-1.748 2.208-1.104 3.956-2.484 5.152-4.14l-.92-1.104c-2.024 1.564-4.324 2.3-6.992 2.3-3.68 0-6.532-1.196-8.464-3.68-2.024-2.484-2.944-5.612-2.76-9.66h19.688c0-4.416-1.104-8.004-3.404-10.856-2.3-2.76-5.52-4.14-9.66-4.14-5.152 0-9.108 1.656-11.96 4.876s-4.232 7.176-4.232 11.868c0 4.784 1.472 8.648 4.508 11.684zm6.808-23.092c1.012-2.208 2.3-3.312 4.048-3.312 2.76 0 4.14 3.496 4.14 10.58l-9.752.184c.092-2.76.552-5.244 1.564-7.452zm42.688-3.68c-2.484-1.104-5.612-1.748-9.384-1.748-3.864 0-6.9 1.012-9.2 2.944s-3.496 4.324-3.496 7.176c0 2.484.736 4.416 2.116 5.796s3.588 2.576 6.44 3.588c2.576.92 4.416 1.84 5.336 2.668.92.92 1.472 1.932 1.472 3.312 0 1.288-.46 2.484-1.472 3.404-.92 1.012-2.208 1.472-3.864 1.472-4.048 0-7.084-2.944-9.2-8.832l-1.564.46.368 9.2c3.312 1.288 6.992 1.932 11.04 1.932 4.232 0 7.452-.92 9.844-2.852 2.392-1.84 3.588-4.508 3.588-7.82 0-2.208-.552-4.048-1.748-5.428s-3.128-2.576-5.888-3.68c-3.036-1.104-5.152-2.116-6.256-3.036s-1.656-2.024-1.656-3.404.368-2.484 1.196-3.404 1.84-1.288 3.128-1.288c3.68 0 6.348 2.668 8.004 7.912l1.564-.46zm-88.504-.828c-1.288-.644-2.668-.92-4.232-.92s-3.128.644-4.876 1.932-3.036 3.036-4.048 5.428l.092-7.36-13.984 2.76v1.288l1.38.092c1.748.184 2.76 1.564 2.944 4.048.552 5.704.552 11.776 0 18.216-.184 2.484-1.196 3.772-2.944 4.048l-1.38.184v1.748h19.504v-1.748l-2.484-.184c-1.748-.184-2.76-1.564-2.944-4.048-.552-5.336-.644-11.04-.184-16.928.552-.92 1.748-1.472 3.588-1.656s3.956.368 6.164 1.656z" transform="translate(.523 .81)"/></svg>

<svg xmlns="http://www.w3.org/2000/svg" width="183" height="47" viewBox="0 0 183 47">
  <path d="M103.316,14.904 C103.316,9.568 103.408,4.6 103.684,0 L89.608,2.668 L89.608,3.956 L90.988,4.14 C92,4.232 92.644,4.6 93.012,5.152 C93.38,5.796 93.656,6.716 93.84,8.096 C94.024,10.764 94.208,16.836 94.116,26.404 C94.116,35.88 94.024,41.86 93.84,44.16 C98.9,45.264 102.856,45.724 105.8,45.724 C111.32,45.724 115.644,44.16 118.772,40.94 C121.9,37.812 123.556,33.396 123.556,27.968 C123.556,23.644 122.36,20.056 119.968,17.204 C117.576,14.352 114.54,12.972 110.952,12.972 C108.56,12.972 106.076,13.616 103.316,14.904 Z M103.592,43.24 C103.408,40.296 103.224,31.464 103.224,17.02 C104.052,16.744 105.156,16.56 106.536,16.56 C108.744,16.56 110.492,17.664 111.78,19.964 C113.068,22.264 113.712,25.024 113.712,28.52 C113.712,32.844 112.976,36.34 111.504,39.284 C110.032,42.136 108.192,43.608 105.892,43.608 C105.156,43.424 104.42,43.332 103.592,43.24 Z M36.8,0.92 L0,0.92 L0,2.76 L1.932,2.944 C3.404,3.22 4.416,3.772 5.06,4.6 C5.704,5.52 6.072,6.992 6.164,9.016 C6.9,18.952 6.9,28.244 6.164,36.8 C5.98,38.824 5.612,40.296 5.06,41.216 C4.416,42.136 3.404,42.688 1.932,42.872 L0,43.148 L0,44.988 L23.736,44.988 L23.736,43.148 L21.252,42.964 C19.78,42.78 18.768,42.136 18.124,41.308 C17.48,40.388 17.112,38.916 17.02,36.892 C16.744,33.212 16.56,28.98 16.56,24.288 L21.528,24.38 C24.196,24.472 26.036,26.496 26.956,30.544 L28.796,30.544 L28.796,15.548 L26.956,15.548 C26.036,19.504 24.288,21.528 21.528,21.62 L16.56,21.712 C16.56,13.432 16.744,7.544 17.02,3.956 L24.288,3.956 C29.44,3.956 32.936,7.268 34.96,13.892 L37.168,13.248 L36.8,0.92 Z M32.476,29.256 C32.476,34.04 33.856,37.996 36.524,41.124 C39.192,44.252 43.148,45.724 48.116,45.724 C53.084,45.724 57.132,44.16 60.076,40.94 C63.02,37.812 64.4,33.856 64.4,29.072 C64.4,24.288 63.02,20.332 60.352,17.204 C57.684,14.076 53.728,12.604 48.76,12.604 C43.792,12.604 39.744,14.168 36.8,17.388 C33.856,20.516 32.476,24.472 32.476,29.256 Z M52.992,18.768 C54.096,21.436 54.556,24.932 54.556,29.164 C54.556,38.916 52.532,43.7 48.576,43.7 C46.552,43.7 44.988,42.32 43.884,39.56 C42.78,36.8 42.32,33.304 42.32,29.164 C42.32,19.504 44.344,14.72 48.3,14.72 C50.324,14.628 51.888,16.008 52.992,18.768 Z M130.732,41.124 C133.768,44.16 137.632,45.724 142.232,45.724 C145.084,45.724 147.568,45.172 149.776,43.976 C151.984,42.872 153.732,41.492 154.928,39.836 L154.008,38.732 C151.984,40.296 149.684,41.032 147.016,41.032 C143.336,41.032 140.484,39.836 138.552,37.352 C136.528,34.868 135.608,31.74 135.792,27.692 L155.48,27.692 C155.48,23.276 154.376,19.688 152.076,16.836 C149.776,14.076 146.556,12.696 142.416,12.696 C137.264,12.696 133.308,14.352 130.456,17.572 C127.604,20.792 126.224,24.748 126.224,29.44 C126.224,34.224 127.696,38.088 130.732,41.124 Z M137.54,18.032 C138.552,15.824 139.84,14.72 141.588,14.72 C144.348,14.72 145.728,18.216 145.728,25.3 L135.976,25.484 C136.068,22.724 136.528,20.24 137.54,18.032 Z M180.228,14.352 C177.744,13.248 174.616,12.604 170.844,12.604 C166.98,12.604 163.944,13.616 161.644,15.548 C159.344,17.48 158.148,19.872 158.148,22.724 C158.148,25.208 158.884,27.14 160.264,28.52 C161.644,29.9 163.852,31.096 166.704,32.108 C169.28,33.028 171.12,33.948 172.04,34.776 C172.96,35.696 173.512,36.708 173.512,38.088 C173.512,39.376 173.052,40.572 172.04,41.492 C171.12,42.504 169.832,42.964 168.176,42.964 C164.128,42.964 161.092,40.02 158.976,34.132 L157.412,34.592 L157.78,43.792 C161.092,45.08 164.772,45.724 168.82,45.724 C173.052,45.724 176.272,44.804 178.664,42.872 C181.056,41.032 182.252,38.364 182.252,35.052 C182.252,32.844 181.7,31.004 180.504,29.624 C179.308,28.244 177.376,27.048 174.616,25.944 C171.58,24.84 169.464,23.828 168.36,22.908 C167.256,21.988 166.704,20.884 166.704,19.504 C166.704,18.124 167.072,17.02 167.9,16.1 C168.728,15.18 169.74,14.812 171.028,14.812 C174.708,14.812 177.376,17.48 179.032,22.724 L180.596,22.264 L180.228,14.352 Z M91.724,13.524 C90.436,12.88 89.056,12.604 87.492,12.604 C85.928,12.604 84.364,13.248 82.616,14.536 C80.868,15.824 79.58,17.572 78.568,19.964 L78.66,12.604 L64.676,15.364 L64.676,16.652 L66.056,16.744 C67.804,16.928 68.816,18.308 69,20.792 C69.552,26.496 69.552,32.568 69,39.008 C68.816,41.492 67.804,42.78 66.056,43.056 L64.676,43.24 L64.676,44.988 L84.18,44.988 L84.18,43.24 L81.696,43.056 C79.948,42.872 78.936,41.492 78.752,39.008 C78.2,33.672 78.108,27.968 78.568,22.08 C79.12,21.16 80.316,20.608 82.156,20.424 C83.996,20.24 86.112,20.792 88.32,22.08 L91.724,13.524 Z" transform="translate(.523 .81)"/>
</svg>
